X: 121
T:Miss Euphemia Lowe's Jig
B:William Marshall's Scottish Airs, Melodies, Strathspeys, Reels &c (1822)
C:William Marshall
L:1/8
M:6/8
O:Scotland
R:Jig
Z:Clark Bernst + Richard Robinson
%%Page:44 - 2
F:http://richardrobinson.tunebook.org.uk/tune/3964
%%TBL:{"version":1,"type":"tune","id":"3964"}
K:C
%%staves {1 2}
V:1
C3 (C2 c) | (B/c/)d.B c3 | ~c3 C2 E | A,DC B,A,G, | \
C3 (C2 c) | (B/c/)d.B c2 G | cBA GFE | A,AC B,A,G, :|
e2 c {d}cBc | GAB ~c3 | e2 c {d}cBc | Adc BAG \
|1 e2 c {d}cBc | GAB c2 G | cBA GFE | A,AC B,A,G, :|2 \
efg def | edc dcB | cBA GFE | A,AC B,A,G, |]
V:2 middle=d clef=bass
c3c3 | g3c3 |c3 c3 | F3G3 | c3c3 | G3c3 | F3E3 | F3G3 :| \
c3c3 g3c3 | c3c3 | f3g3 | c'3c'3 | g3c'3 | e3c3 | G3A3 :| \
c'3 b3 | c'3g3 | f3A3 | F3G3 |]

